X: 248
T: b The Reconciliation
P:Flute friendly
M:4/4
L:1/8
K:Amaj
A2cA eAfA|eAfA ecBc|A2cA eAfA|ecBc AFEF|
A2cA eAfA|eAfA ecBc|A3F EFAc|ecBc A4:|
ABce a3f|e3d cdBc|ABce a3e|fbba befe|
a3e f2ec|dBcA BAFB|A3F EFAc|ecBc A4:|


